X: 70
T: No_168.krn
N: Derived from No_168.krn
%%abc-version 2.0
%%abcx-abcm2ps-target-version 5.9.1 (29 Sep 2008)
%%abc-creator hum2abc beta
%%abcx-conversion-date 2019/03/15 08:29:13
%%humdrum-veritas 723629977
%%humdrum-veritas-data 309778986
%%linebreak <none>
%%barnumbers 0
L: 1/8
M: 2/4
%%staves {1 2}
V: 1 clef=treble
V: 2 clef=bass
K: E
[V:1] [K:clef=treble][M:2/4]G3/B/ G/GG//G// | 
[V:2] [K:clef=bass][M:2/4]z4 | 
[V:1] G2E2 | 
[V:2] (3!accent!G,, z G,, (3!accent!G,, z G,, | 
[V:1] (3ECE C3/C/ ||  
[V:2] z4 ||  
[V:1] [M:3/4]C6 | 
[V:2] [M:3/4]z6 | 
[V:1] G2E2(3GCG | 
[V:2] z6 | 
[V:1] [M:2/4]C2C3/B,/ | 
[V:2] [M:2/4]z4 | 
[V:1] z4 | 
[V:2] G,2G,3/F,/ | 
[V:1] z4 | 
[V:2] E,E,E,2- | 
[V:1] z4 ||  
[V:2] E,4 ||  
[V:1] [M:3/4]z6 ||  
[V:2] [M:3/4]C2C2CB, ||  
[V:1] [M:2/4]z4 | 
[V:2] [M:2/4]G,2{/G,} (3G,F,E, | 
[V:1] z4 | 
[V:2] C,3/C,/C,2- | 
[V:1] z4 |]  
[V:2] C,4 |]  



